X: 511
P: Longways for as many as will
M: C|
L: 1/8
K: F % and Dm
c2 cd B2 Bc | A2 (d/c/) (B/A/) G2 AB | c2 (BA) G>F E>G | F6 |]
cB |\
fa fa fa fa | eg eg eg eg | f2 (ed) Ad ^c>e | d6 |]

